src/assets/icons/github.svg

<svg width="24" height="24" viewBox="0 0 24 24" fill="none" xmlns="http://www.w3.org/2000/svg">
<path fill-rule="evenodd" clip-rule="evenodd" d="M12 2.24669C6.475 2.24669 2 6.72169 2 12.2467C2 16.6717 4.8625 20.4092 8.8375 21.7342C9.3375 21.8217 9.525 21.5217 9.525 21.2592C9.525 21.0217 9.5125 20.2342 9.5125 19.3967C7 19.8592 6.35 18.7842 6.15 18.2217C6.0375 17.9342 5.55 17.0467 5.125 16.8092C4.775 16.6217 4.275 16.1592 5.1125 16.1467C5.9 16.1342 6.4625 16.8717 6.65 17.1717C7.55 18.6842 8.9875 18.2592 9.5625 17.9967C9.65 17.3467 9.9125 16.9092 10.2 16.6592C7.975 16.4092 5.65 15.5467 5.65 11.7217C5.65 10.6342 6.0375 9.73419 6.675 9.03419C6.575 8.78419 6.225 7.75919 6.775 6.38419C6.775 6.38419 7.6125 6.12169 9.525 7.40919C10.325 7.18419 11.175 7.07169 12.025 7.07169C12.875 7.07169 13.725 7.18419 14.525 7.40919C16.4375 6.10919 17.275 6.38419 17.275 6.38419C17.825 7.75919 17.475 8.78419 17.375 9.03419C18.0125 9.73419 18.4 10.6217 18.4 11.7217C18.4 15.5592 16.0625 16.4092 13.8375 16.6592C14.2 16.9717 14.5125 17.5717 14.5125 18.5092C14.5125 19.8467 14.5 20.9217 14.5 21.2592C14.5 21.5217 14.6875 21.8342 15.1875 21.7342C17.1727 21.064 18.8977 19.7882 20.1198 18.0862C21.3419 16.3843 21.9995 14.3419 22 12.2467C22 6.72169 17.525 2.24669 12 2.24669Z" fill="black"/>
</svg>

<svg width="24" height="24" viewBox="0 0 24 24" fill="none" xmlns="http://www.w3.org/2000/svg"><path fill-rule="evenodd" clip-rule="evenodd" d="M12 2.247c-5.525 0-10 4.475-10 10a9.994 9.994 0 006.838 9.487c.5.088.687-.212.687-.475 0-.237-.013-1.025-.013-1.862-2.512.462-3.162-.613-3.362-1.175-.113-.288-.6-1.175-1.025-1.413-.35-.187-.85-.65-.013-.662.788-.013 1.35.725 1.538 1.025.9 1.512 2.338 1.087 2.912.825.088-.65.35-1.088.638-1.338-2.225-.25-4.55-1.112-4.55-4.937 0-1.088.387-1.988 1.025-2.688-.1-.25-.45-1.275.1-2.65 0 0 .837-.262 2.75 1.025a9.28 9.28 0 012.5-.337c.85 0 1.7.112 2.5.337 1.912-1.3 2.75-1.025 2.75-1.025.55 1.375.2 2.4.1 2.65.637.7 1.025 1.588 1.025 2.688 0 3.837-2.337 4.687-4.562 4.937.362.313.675.913.675 1.85 0 1.338-.013 2.413-.013 2.75 0 .263.188.575.688.475A10.016 10.016 0 0022 12.247c0-5.525-4.475-10-10-10z" fill="#000"/></svg>
